src/assets/filled/VideoTime.svg

<svg width="24" height="24" viewBox="0 0 24 24"  xmlns="http://www.w3.org/2000/svg">
<path d="M21.98 15.65C21.16 14.64 19.91 14 18.5 14C17.44 14 16.46 14.37 15.69 14.99C14.65 15.81 14 17.08 14 18.5C14 19.91 14.64 21.16 15.65 21.98C16.42 22.62 17.42 23 18.5 23C19.64 23 20.67 22.57 21.47 21.88C22.4 21.05 23 19.85 23 18.5C23 17.42 22.62 16.42 21.98 15.65ZM19.53 18.78C19.53 19.04 19.39 19.29 19.17 19.42L17.76 20.26C17.64 20.33 17.51 20.37 17.37 20.37C17.12 20.37 16.87 20.24 16.73 20.01C16.52 19.65 16.63 19.19 16.99 18.98L18.03 18.36V17.1C18.03 16.69 18.37 16.35 18.78 16.35C19.19 16.35 19.53 16.69 19.53 17.1V18.78Z" />
<path d="M14.73 5.86V2.5C14.73 2.22 14.51 2 14.23 2H9.77002C9.49002 2 9.27002 2.22 9.27002 2.5V5.86C9.27002 6.14 9.49002 6.36 9.77002 6.36H14.23C14.51 6.36 14.73 6.14 14.73 5.86Z" />
<path d="M7.24998 2.01997C4.68998 2.17997 2.93998 3.49997 2.28998 5.69997C2.18998 6.02997 2.42998 6.35997 2.76998 6.35997H7.26998C7.54998 6.35997 7.76998 6.13997 7.76998 5.85997V2.51997C7.76998 2.23997 7.52998 1.99997 7.24998 2.01997Z" />
<path d="M16.75 2.00996C19.31 2.16996 21.06 3.48996 21.71 5.68996C21.81 6.01996 21.57 6.34996 21.23 6.34996H16.73C16.45 6.34996 16.23 6.12996 16.23 5.84996V2.50996C16.23 2.22996 16.47 1.98996 16.75 2.00996Z" />
<path d="M22 8.36011V12.7401C22 13.1101 21.61 13.3501 21.28 13.1801C20.44 12.7401 19.48 12.5001 18.5 12.5001C16.89 12.5001 15.32 13.1601 14.2 14.3101C13.1 15.4301 12.5 16.9201 12.5 18.5001C12.5 19.3101 12.82 20.3501 13.22 21.2201C13.38 21.5701 13.14 22.0001 12.75 22.0001H7.81C4.6 22.0001 2 19.4001 2 16.1901V8.36011C2 8.08011 2.22 7.86011 2.5 7.86011H21.5C21.78 7.86011 22 8.08011 22 8.36011Z" />
</svg>

<?xml version="1.0" encoding="UTF-8"?>
<svg width="24" height="24" viewBox="0 0 24 24" xmlns="http://www.w3.org/2000/svg">
 <path d="m21.98 15.65c-0.82-1.01-2.07-1.65-3.48-1.65-1.06 0-2.04 0.37-2.81 0.99-1.04 0.82-1.69 2.09-1.69 3.51 0 1.41 0.64 2.66 1.65 3.48 0.77 0.64 1.77 1.02 2.85 1.02 1.14 0 2.17-0.43 2.97-1.12 0.93-0.83 1.53-2.03 1.53-3.38 0-1.08-0.38-2.08-1.02-2.85zm-2.45 3.13c0 0.26-0.14 0.51-0.36 0.64l-1.41 0.84c-0.12 0.07-0.25 0.11-0.39 0.11-0.25 0-0.5-0.13-0.64-0.36-0.21-0.36-0.1-0.82 0.26-1.03l1.04-0.62v-1.26c0-0.41 0.34-0.75 0.75-0.75s0.75 0.34 0.75 0.75v1.68z"/>
 <path d="m14.73 5.86v-3.36c0-0.28-0.22-0.5-0.5-0.5h-4.46c-0.28 0-0.5 0.22-0.5 0.5v3.36c0 0.28 0.22 0.5 0.5 0.5h4.46c0.28 0 0.5-0.22 0.5-0.5z"/>
 <path d="m7.25 2.02c-2.56 0.16-4.31 1.48-4.96 3.68-0.1 0.33 0.14 0.66 0.48 0.66h4.5c0.28 0 0.5-0.22 0.5-0.5v-3.34c0-0.28-0.24-0.52-0.52-0.5z"/>
 <path d="m16.75 2.01c2.56 0.16 4.31 1.48 4.96 3.68 0.1 0.33-0.14 0.66-0.48 0.66h-4.5c-0.28 0-0.5-0.22-0.5-0.5v-3.34c0-0.28 0.24-0.52 0.52-0.5z"/>
 <path d="m22 8.3601v4.38c0 0.37-0.39 0.61-0.72 0.44-0.84-0.44-1.8-0.68-2.78-0.68-1.61 0-3.18 0.66-4.3 1.81-1.1 1.12-1.7 2.61-1.7 4.19 0 0.81 0.32 1.85 0.72 2.72 0.16 0.35-0.08 0.78-0.47 0.78h-4.94c-3.21 0-5.81-2.6-5.81-5.81v-7.83c0-0.28 0.22-0.5 0.5-0.5h19c0.28 0 0.5 0.22 0.5 0.5z"/>
</svg>
